X:15
T:Fiddler's Polka
C:Andy De Jarlis
M:2/4
L:1/8
Z:abc by Bruce Osborne - bosborne@kos.net
K:D
f/g/|af/a/ g/f/e/g/|fd d/A/d/f/|ec A/c/e/g/|fa af/g/|!
af/a/ g/f/e/g/|fd d/A/d/f/|ec A/c/e/g/|fd d:|!
K:A
A|e2 e3/2d/|c/e/e e2|E/F/^G/A/ B/c/d/B/|A/B/c/d/ ec|!
e2 e3/2d/|c/e/e e2|E/F/^G/A/ B/c/d/B/|Ac A:|!
